X:1
T:Title
L:1/8
M:4/4
I:linebreak $
K:D
V:1 treble nm="Violon" snm="Vln."
V:1
"D" d2 AG F2 DF |"A7" EA, A,2 GFED |"D" F2 AF"G" GABd |"A" AE E2 cdec |"D" d2 AG F2 DF | %5
"A7" EA, A,2 GFED |"D" F2 AF"G" GABd |"A" AE E2"D" FDDc ::"D" d2 fd gdfa |"A" eA A/A/A cdec | %10
"D" d2 fd"G" g2 fg |"A" aeeg (3fga ec |"D" d2 fd gdfa |"A" eA A/A/A cdeg |"D" f2 ed"A" e2 cd | %15
 e2 dc"D" d2 Ac :| %16
